;Generated with Cura_SteamEngine DEV
M109 S210     ;Heatup to 210C
G21           ;metric values
G90           ;absolute positioning
G28           ;Home
G1 Z15.0 F300 ;move the platform down 15mm
G92 E0        ;zero the extruded length
G1 F200 E5    ;extrude 5mm of feed stock
G92 E0        ;zero the extruded length again

;Layer count: 238
;LAYER:0
M107
G0 F9000 X84.200 Y86.200 Z0.300
;TYPE:SKIRT
G1 F1200 X120.800 Y86.200 E1.00431
G1 X120.800 Y101.800 E1.43238
G1 X84.200 Y101.800 E2.43669
G1 X84.200 Y86.200 E2.86475
G1 F2700 E-1.63525
G0 F9000 X91.400 Y93.400
;TYPE:WALL-INNER
G1 F2700 E2.86475
G1 F1200 X113.600 Y93.400 E3.47393
G1 X113.600 Y94.600 E3.50685
G1 X91.400 Y94.600 E4.11603
G1 X91.400 Y93.400 E4.14896
G0 F9000 X90.800 Y92.800
;TYPE:WALL-OUTER
G1 F1200 X114.200 Y92.800 E4.79106
G1 X114.200 Y95.200 E4.85691
G1 X90.800 Y95.200 E5.49901
G1 X90.800 Y92.800 E5.56487
G0 F9000 X91.120 Y93.120
;LAYER:1
M106 S127
G0 X90.515 Y92.515 Z0.400
;TYPE:WALL-INNER
G1 F1260 X114.485 Y92.515 E5.56852
G1 X114.485 Y95.485 E5.56898
G1 X90.515 Y95.485 E5.57263
G1 X90.515 Y92.515 E5.57308
G0 F9000 X90.505 Y92.505
;TYPE:WALL-OUTER
G1 F1260 X114.495 Y92.505 E5.57674
G1 X114.495 Y95.495 E5.57720
G1 X90.505 Y95.495 E5.58085
G1 X90.505 Y92.505 E5.58131
G0 F9000 X90.530 Y92.530
;LAYER:2
M106 S255
G0 X90.515 Y92.515 Z0.500
;TYPE:WALL-INNER
G1 F1260 X114.485 Y92.515 E5.58496
G1 X114.485 Y95.485 E5.58541
G1 X90.515 Y95.485 E5.58907
G1 X90.515 Y92.515 E5.58952
G0 F9000 X90.505 Y92.505
;TYPE:WALL-OUTER
G1 F1260 X114.495 Y92.505 E5.59318
G1 X114.495 Y95.495 E5.59363
G1 X90.505 Y95.495 E5.59729
G1 X90.505 Y92.505 E5.59775
G0 F9000 X90.530 Y92.530
;LAYER:3
G0 X90.515 Y92.515 Z0.600
;TYPE:WALL-INNER
G1 F1260 X114.485 Y92.515 E5.60140
G1 X114.485 Y95.485 E5.60185
G1 X90.515 Y95.485 E5.60551
G1 X90.515 Y92.515 E5.60596
G0 F9000 X90.505 Y92.505
;TYPE:WALL-OUTER
G1 F1260 X114.495 Y92.505 E5.60962
G1 X114.495 Y95.495 E5.61007
G1 X90.505 Y95.495 E5.61373
G1 X90.505 Y92.505 E5.61419
G0 F9000 X90.530 Y92.530
;LAYER:4
G0 X90.515 Y92.515 Z0.700
;TYPE:WALL-INNER
G1 F1260 X114.485 Y92.515 E5.61784
G1 X114.485 Y95.485 E5.61829
G1 X90.515 Y95.485 E5.62195
G1 X90.515 Y92.515 E5.62240
G0 F9000 X90.505 Y92.505
;TYPE:WALL-OUTER
G1 F1260 X114.495 Y92.505 E5.62606
G1 X114.495 Y95.495 E5.62651
G1 X90.505 Y95.495 E5.63017
G1 X90.505 Y92.505 E5.63063
G0 F9000 X90.530 Y92.530
;LAYER:5
G0 X90.515 Y92.515 Z0.800
;TYPE:WALL-INNER
G1 F1260 X114.485 Y92.515 E5.63428
G1 X114.485 Y95.485 E5.63473
G1 X90.515 Y95.485 E5.63839
G1 X90.515 Y92.515 E5.63884
G0 F9000 X90.505 Y92.505
;TYPE:WALL-OUTER
G1 F1260 X114.495 Y92.505 E5.64250
G1 X114.495 Y95.495 E5.64295
G1 X90.505 Y95.495 E5.64661
G1 X90.505 Y92.505 E5.64707
G0 F9000 X90.530 Y92.530
;LAYER:6
G0 X90.515 Y92.515 Z0.900
;TYPE:WALL-INNER
G1 F1260 X114.485 Y92.515 E5.65072
G1 X114.485 Y95.485 E5.65117
G1 X90.515 Y95.485 E5.65483
G1 X90.515 Y92.515 E5.65528
G0 F9000 X90.505 Y92.505
;TYPE:WALL-OUTER
G1 F1260 X114.495 Y92.505 E5.65894
G1 X114.495 Y95.495 E5.65939
G1 X90.505 Y95.495 E5.66305
G1 X90.505 Y92.505 E5.66351
G0 F9000 X90.530 Y92.530
;LAYER:7
G0 X90.515 Y92.515 Z1.000
;TYPE:WALL-INNER
G1 F1260 X114.485 Y92.515 E5.66716
G1 X114.485 Y95.485 E5.66761
G1 X90.515 Y95.485 E5.67127
G1 X90.515 Y92.515 E5.67172
G0 F9000 X90.505 Y92.505
;TYPE:WALL-OUTER
G1 F1260 X114.495 Y92.505 E5.67538
G1 X114.495 Y95.495 E5.67583
G1 X90.505 Y95.495 E5.67949
G1 X90.505 Y92.505 E5.67995
G0 F9000 X90.530 Y92.530
;LAYER:8
G0 X90.515 Y92.515 Z1.100
;TYPE:WALL-INNER
G1 F1260 X114.485 Y92.515 E5.68360
G1 X114.485 Y95.485 E5.68405
G1 X90.515 Y95.485 E5.68771
G1 X90.515 Y92.515 E5.68816
G0 F9000 X90.505 Y92.505
;TYPE:WALL-OUTER
G1 F1260 X114.495 Y92.505 E5.69182
G1 X114.495 Y95.495 E5.69227
G1 X90.505 Y95.495 E5.69593
G1 X90.505 Y92.505 E5.69639
G0 F9000 X90.530 Y92.530
;LAYER:9
G0 X90.515 Y92.515 Z1.200
;TYPE:WALL-INNER
G1 F1260 X114.485 Y92.515 E5.70004
G1 X114.485 Y95.485 E5.70049
G1 X90.515 Y95.485 E5.70415
G1 X90.515 Y92.515 E5.70460
G0 F9000 X90.505 Y92.505
;TYPE:WALL-OUTER
G1 F1260 X114.495 Y92.505 E5.70826
G1 X114.495 Y95.495 E5.70871
G1 X90.505 Y95.495 E5.71237
G1 X90.505 Y92.505 E5.71283
G0 F9000 X90.530 Y92.530
;LAYER:10
G0 X90.515 Y92.515 Z1.300
;TYPE:WALL-INNER
G1 F1260 X114.485 Y92.515 E5.71648
G1 X114.485 Y95.485 E5.71693
G1 X90.515 Y95.485 E5.72059
G1 X90.515 Y92.515 E5.72104
G0 F9000 X90.505 Y92.505
;TYPE:WALL-OUTER
G1 F1260 X114.495 Y92.505 E5.72470
G1 X114.495 Y95.495 E5.72515
G1 X90.505 Y95.495 E5.72881
G1 X90.505 Y92.505 E5.72927
G0 F9000 X90.530 Y92.530
;LAYER:11
G0 X90.515 Y92.515 Z1.400
;TYPE:WALL-INNER
G1 F1260 X114.485 Y92.515 E5.73292
G1 X114.485 Y95.485 E5.73337
G1 X90.515 Y95.485 E5.73703
G1 X90.515 Y92.515 E5.73748
G0 F9000 X90.505 Y92.505
;TYPE:WALL-OUTER
G1 F1260 X114.495 Y92.505 E5.74114
G1 X114.495 Y95.495 E5.74159
G1 X90.505 Y95.495 E5.74525
G1 X90.505 Y92.505 E5.74571
G0 F9000 X90.530 Y92.530
;LAYER:12
G0 X90.515 Y92.515 Z1.500
;TYPE:WALL-INNER
G1 F1260 X114.485 Y92.515 E5.74936
G1 X114.485 Y95.485 E5.74981
G1 X90.515 Y95.485 E5.75347
G1 X90.515 Y92.515 E5.75392
G0 F9000 X90.505 Y92.505
;TYPE:WALL-OUTER
G1 F1260 X114.495 Y92.505 E5.75758
G1 X114.495 Y95.495 E5.75803
G1 X90.505 Y95.495 E5.76169
G1 X90.505 Y92.505 E5.76214
G0 F9000 X90.530 Y92.530
;LAYER:13
G0 X90.515 Y92.515 Z1.600
;TYPE:WALL-INNER
G1 F1260 X114.485 Y92.515 E5.76580
G1 X114.485 Y95.485 E5.76625
G1 X90.515 Y95.485 E5.76991
G1 X90.515 Y92.515 E5.77036
G0 F9000 X90.505 Y92.505
;TYPE:WALL-OUTER
G1 F1260 X114.495 Y92.505 E5.77402
G1 X114.495 Y95.495 E5.77447
G1 X90.505 Y95.495 E5.77813
G1 X90.505 Y92.505 E5.77858
G0 F9000 X90.530 Y92.530
;LAYER:14
G0 X90.515 Y92.515 Z1.700
;TYPE:WALL-INNER
G1 F1260 X114.485 Y92.515 E5.78224
G1 X114.485 Y95.485 E5.78269
G1 X90.515 Y95.485 E5.78635
G1 X90.515 Y92.515 E5.78680
G0 F9000 X90.505 Y92.505
;TYPE:WALL-OUTER
G1 F1260 X114.495 Y92.505 E5.79046
G1 X114.495 Y95.495 E5.79091
G1 X90.505 Y95.495 E5.79457
G1 X90.505 Y92.505 E5.79502
G0 F9000 X90.530 Y92.530
;LAYER:15
G0 X90.515 Y92.515 Z1.800
;TYPE:WALL-INNER
G1 F1260 X114.485 Y92.515 E5.79868
G1 X114.485 Y95.485 E5.79913
G1 X90.515 Y95.485 E5.80279
G1 X90.515 Y92.515 E5.80324
G0 F9000 X90.505 Y92.505
;TYPE:WALL-OUTER
G1 F1260 X114.495 Y92.505 E5.80690
G1 X114.495 Y95.495 E5.80735
G1 X90.505 Y95.495 E5.81101
G1 X90.505 Y92.505 E5.81146
G0 F9000 X90.530 Y92.530
;LAYER:16
G0 X90.515 Y92.515 Z1.900
;TYPE:WALL-INNER
G1 F1260 X114.485 Y92.515 E5.81512
G1 X114.485 Y95.485 E5.81557
G1 X90.515 Y95.485 E5.81923
G1 X90.515 Y92.515 E5.81968
G0 F9000 X90.505 Y92.505
;TYPE:WALL-OUTER
G1 F1260 X114.495 Y92.505 E5.82333
G1 X114.495 Y95.495 E5.82379
G1 X90.505 Y95.495 E5.82745
G1 X90.505 Y92.505 E5.82790
G0 F9000 X90.530 Y92.530
;LAYER:17
G0 X90.515 Y92.515 Z2.000
;TYPE:WALL-INNER
G1 F1260 X114.485 Y92.515 E5.83156
G1 X114.485 Y95.485 E5.83201
G1 X90.515 Y95.485 E5.83566
G1 X90.515 Y92.515 E5.83612
G0 F9000 X90.505 Y92.505
;TYPE:WALL-OUTER
G1 F1260 X114.495 Y92.505 E5.83977
G1 X114.495 Y95.495 E5.84023
G1 X90.505 Y95.495 E5.84389
G1 X90.505 Y92.505 E5.84434
G0 F9000 X90.530 Y92.530
;LAYER:18
G0 X90.515 Y92.515 Z2.100
;TYPE:WALL-INNER
G1 F2100 X114.485 Y92.515 E5.84800
G1 X114.485 Y95.485 E5.84845
G1 X109.099 Y95.485 E5.84927
G1 X109.099 Y98.969 E5.84980
G1 X109.098 Y112.485 E5.85186
G1 X107.909 Y112.485 E5.85204
G1 X107.908 Y100.182 E5.85392
G1 X107.909 Y95.485 E5.85464
G1 X90.515 Y95.485 E5.85729
G1 X90.515 Y92.515 E5.85774
G0 F9000 X90.505 Y92.505
;TYPE:WALL-OUTER
G1 F2100 X114.495 Y92.505 E5.86140
G1 X114.495 Y95.495 E5.86185
G1 X109.109 Y95.495 E5.86267
G1 X109.109 Y98.969 E5.86320
G1 X109.108 Y112.495 E5.86527
G1 X107.899 Y112.495 E5.86545
G1 X107.898 Y100.182 E5.86733
G1 X107.899 Y95.495 E5.86804
G1 X90.505 Y95.495 E5.87069
G1 X90.505 Y92.505 E5.87115
G0 F9000 X90.530 Y92.530
;LAYER:19
G0 X90.515 Y92.515 Z2.200
;TYPE:WALL-INNER
G1 F2100 X114.485 Y92.515 E5.87480
G1 X114.485 Y95.485 E5.87526
G1 X109.571 Y95.485 E5.87601
G1 X109.571 Y112.366 E5.87858
G1 X109.570 Y112.485 E5.87860
G1 X107.447 Y112.485 E5.87892
G1 X107.446 Y103.371 E5.88031
G1 X107.447 Y95.485 E5.88151
G1 X90.515 Y95.485 E5.88409
G1 X90.515 Y92.515 E5.88455
G0 F9000 X90.505 Y92.505
;TYPE:WALL-OUTER
G1 F2100 X114.495 Y92.505 E5.88820
G1 X114.495 Y95.495 E5.88866
G1 X109.581 Y95.495 E5.88941
G1 X109.581 Y112.366 E5.89198
G1 X109.580 Y112.495 E5.89200
G1 X107.437 Y112.495 E5.89233
G1 X107.436 Y103.371 E5.89372
G1 X107.437 Y95.495 E5.89492
G1 X90.505 Y95.495 E5.89750
G1 X90.505 Y92.505 E5.89795
G0 F9000 X90.530 Y92.530
;LAYER:20
G0 X90.515 Y92.515 Z2.300
;TYPE:WALL-INNER
G1 F2100 X114.485 Y92.515 E5.90161
G1 X114.485 Y95.485 E5.90206
G1 X109.869 Y95.485 E5.90277
G1 X109.869 Y98.980 E5.90330
G1 X109.868 Y112.485 E5.90536
G1 X107.134 Y112.485 E5.90577
G1 X107.133 Y100.391 E5.90762
G1 X107.134 Y95.485 E5.90837
G1 X90.515 Y95.485 E5.91090
G1 X90.515 Y92.515 E5.91135
G0 F9000 X90.505 Y92.505
;TYPE:WALL-OUTER
G1 F2100 X114.495 Y92.505 E5.91501
G1 X114.495 Y95.495 E5.91546
G1 X109.879 Y95.495 E5.91617
G1 X109.879 Y98.980 E5.91670
G1 X109.878 Y112.495 E5.91876
G1 X107.124 Y112.495 E5.91918
G1 X107.123 Y100.391 E5.92102
G1 X107.124 Y95.495 E5.92177
G1 X90.505 Y95.495 E5.92430
G1 X90.505 Y92.505 E5.92476
G0 F9000 X90.530 Y92.530
;LAYER:21
G0 X90.515 Y92.515 Z2.400
;TYPE:WALL-INNER
G1 F2100 X114.485 Y92.515 E5.92841
G1 X114.485 Y95.485 E5.92887
G1 X110.110 Y95.485 E5.92953
G1 X110.110 Y104.829 E5.93096
G1 X110.109 Y112.485 E5.93213
G1 X106.880 Y112.485 E5.93262
G1 X106.879 Y112.035 E5.93269
G1 X106.880 Y95.485 E5.93521
G1 X90.515 Y95.485 E5.93770
G1 X90.515 Y92.515 E5.93816
G0 F9000 X90.505 Y92.505
;TYPE:WALL-OUTER
G1 F2100 X114.495 Y92.505 E5.94181
G1 X114.495 Y95.495 E5.94227
G1 X110.120 Y95.495 E5.94294
G1 X110.120 Y104.829 E5.94436
G1 X110.119 Y112.495 E5.94553
G1 X106.870 Y112.495 E5.94602
G1 X106.869 Y112.035 E5.94609
G1 X106.870 Y95.495 E5.94862
G1 X90.505 Y95.495 E5.95111
G1 X90.505 Y92.505 E5.95157
G0 F9000 X90.530 Y92.530
;LAYER:22
G0 X90.515 Y92.515 Z2.500
;TYPE:WALL-INNER
G1 F2100 X114.485 Y92.515 E5.95522
G1 X114.485 Y95.485 E5.95567
G1 X110.327 Y95.485 E5.95631
G1 X110.327 Y111.645 E5.95877
G1 X110.326 Y112.485 E5.95890
G1 X106.682 Y112.485 E5.95945
G1 X106.681 Y104.517 E5.96067
G1 X106.682 Y95.485 E5.96205
G1 X90.515 Y95.485 E5.96451
G1 X90.515 Y92.515 E5.96496
G0 F9000 X90.505 Y92.505
;TYPE:WALL-OUTER
G1 F2100 X114.495 Y92.505 E5.96862
G1 X114.495 Y95.495 E5.96908
G1 X110.337 Y95.495 E5.96971
G1 X110.337 Y111.645 E5.97217
G1 X110.336 Y112.495 E5.97230
G1 X106.672 Y112.495 E5.97286
G1 X106.671 Y104.517 E5.97408
G1 X106.672 Y95.495 E5.97545
G1 X90.505 Y95.495 E5.97792
G1 X90.505 Y92.505 E5.97837
G0 F9000 X90.530 Y92.530
;LAYER:23
G0 X90.515 Y92.515 Z2.600
;TYPE:WALL-INNER
G1 F2880 X114.485 Y92.515 E5.98203
G1 X114.485 Y95.485 E5.98248
G1 X110.501 Y95.485 E5.98309
G1 X110.501 Y103.103 E5.98425
G1 X110.500 Y112.485 E5.98568
G1 X106.492 Y112.485 E5.98629
G1 X106.491 Y96.676 E5.98870
G1 X106.492 Y95.485 E5.98888
G1 X98.493 Y95.485 E5.99010
G1 X98.494 Y112.426 E5.99268
G1 X98.493 Y112.485 E5.99269
G1 X94.507 Y112.485 E5.99330
G1 X94.506 Y95.574 E5.99588
G1 X94.507 Y95.485 E5.99589
G1 X90.515 Y95.485 E5.99650
G1 X90.515 Y92.515 E5.99695
G0 F9000 X90.505 Y92.505
;TYPE:WALL-OUTER
G1 F2880 X114.495 Y92.505 E6.00061
G1 X114.495 Y95.495 E6.00106
G1 X110.511 Y95.495 E6.00167
G1 X110.511 Y103.103 E6.00283
G1 X110.510 Y112.495 E6.00426
G1 X106.482 Y112.495 E6.00488
G1 X106.481 Y96.676 E6.00729
G1 X106.482 Y95.495 E6.00747
G1 X98.503 Y95.495 E6.00869
G1 X98.504 Y112.426 E6.01127
G1 X98.503 Y112.495 E6.01128
G1 X94.497 Y112.495 E6.01189
G1 X94.496 Y95.574 E6.01447
G1 X94.497 Y95.495 E6.01448
G1 X90.505 Y95.495 E6.01509
G1 X90.505 Y92.505 E6.01554
G0 F9000 X90.530 Y92.530
;LAYER:24
G0 X90.515 Y92.515 Z2.700
;TYPE:WALL-INNER
G1 F2880 X114.485 Y92.515 E6.01920
G1 X114.485 Y95.485 E6.01965
G1 X110.671 Y95.485 E6.02023
G1 X110.671 Y111.697 E6.02270
G1 X110.670 Y112.485 E6.02282
G1 X106.337 Y112.485 E6.02348
G1 X106.336 Y104.510 E6.02470
G1 X106.337 Y95.485 E6.02608
G1 X98.551 Y95.485 E6.02726
G1 X98.552 Y111.935 E6.02977
G1 X98.551 Y112.485 E6.02985
G1 X94.449 Y112.485 E6.03048
G1 X94.448 Y96.065 E6.03298
G1 X94.449 Y95.485 E6.03307
G1 X90.515 Y95.485 E6.03367
G1 X90.515 Y92.515 E6.03412
G0 F9000 X90.505 Y92.505
;TYPE:WALL-OUTER
G1 F2880 X114.495 Y92.505 E6.03778
G1 X114.495 Y95.495 E6.03824
G1 X110.681 Y95.495 E6.03882
G1 X110.681 Y111.697 E6.04129
G1 X110.680 Y112.495 E6.04141
G1 X106.327 Y112.495 E6.04207
G1 X106.326 Y104.510 E6.04329
G1 X106.327 Y95.495 E6.04466
G1 X98.561 Y95.495 E6.04585
G1 X98.562 Y111.935 E6.04836
G1 X98.561 Y112.495 E6.04844
G1 X94.439 Y112.495 E6.04907
G1 X94.438 Y96.065 E6.05157
G1 X94.439 Y95.495 E6.05166
G1 X90.505 Y95.495 E6.05226
G1 X90.505 Y92.505 E6.05272
G0 F9000 X90.530 Y92.530
;LAYER:25
G0 X90.515 Y92.515 Z2.800
;TYPE:WALL-INNER
G1 F2880 X114.485 Y92.515 E6.05637
G1 X114.485 Y95.485 E6.05682
G1 X110.809 Y95.485 E6.05738
G1 X110.809 Y104.401 E6.05874
G1 X110.808 Y112.485 E6.05997
G1 X106.183 Y112.485 E6.06068
G1 X106.182 Y112.344 E6.06070
G1 X106.183 Y95.485 E6.06327
G1 X98.609 Y95.485 E6.06443
G1 X98.610 Y111.445 E6.06686
G1 X98.609 Y112.485 E6.06702
G1 X94.391 Y112.485 E6.06766
G1 X94.390 Y96.555 E6.07009
G1 X94.391 Y95.485 E6.07025
G1 X90.515 Y95.485 E6.07084
G1 X90.515 Y92.515 E6.07130
G0 F9000 X90.505 Y92.505
;TYPE:WALL-OUTER
G1 F2880 X114.495 Y92.505 E6.07495
G1 X114.495 Y95.495 E6.07541
G1 X110.819 Y95.495 E6.07597
G1 X110.819 Y104.401 E6.07733
G1 X110.818 Y112.495 E6.07856
G1 X106.173 Y112.495 E6.07927
G1 X106.172 Y112.344 E6.07929
G1 X106.173 Y95.495 E6.08186
G1 X98.619 Y95.495 E6.08301
G1 X98.620 Y111.445 E6.08544
G1 X98.619 Y112.495 E6.08560
G1 X94.381 Y112.495 E6.08625
G1 X94.380 Y96.555 E6.08868
G1 X94.381 Y95.495 E6.08884
G1 X90.505 Y95.495 E6.08943
G1 X90.505 Y92.505 E6.08989
G0 F9000 X90.530 Y92.530
;LAYER:26
G0 X90.515 Y92.515 Z2.900
;TYPE:WALL-INNER
G1 F2880 X114.485 Y92.515 E6.09354
G1 X114.485 Y95.485 E6.09399
G1 X110.948 Y95.485 E6.09453
G1 X110.948 Y97.105 E6.09478
G1 X110.947 Y112.485 E6.09713
G1 X106.057 Y112.485 E6.09787
G1 X106.056 Y102.218 E6.09944
G1 X106.057 Y95.485 E6.10046
G1 X98.666 Y95.485 E6.10159
G1 X98.667 Y110.954 E6.10395
G1 X98.666 Y112.485 E6.10418
G1 X94.334 Y112.485 E6.10484
G1 X94.333 Y97.046 E6.10719
G1 X94.334 Y95.485 E6.10743
G1 X90.515 Y95.485 E6.10802
G1 X90.515 Y92.515 E6.10847
G0 F9000 X90.505 Y92.505
;TYPE:WALL-OUTER
G1 F2880 X114.495 Y92.505 E6.11213
G1 X114.495 Y95.495 E6.11258
G1 X110.958 Y95.495 E6.11312
G1 X110.958 Y97.105 E6.11337
G1 X110.957 Y112.495 E6.11571
G1 X106.047 Y112.495 E6.11646
G1 X106.046 Y102.218 E6.11803
G1 X106.047 Y95.495 E6.11905
G1 X98.676 Y95.495 E6.12018
G1 X98.677 Y110.954 E6.12253
G1 X98.676 Y112.495 E6.12277
G1 X94.324 Y112.495 E6.12343
G1 X94.323 Y97.046 E6.12579
G1 X94.324 Y95.495 E6.12602
G1 X90.505 Y95.495 E6.12660
G1 X90.505 Y92.505 E6.12706
G0 F9000 X90.530 Y92.530
;LAYER:27
G0 X90.515 Y92.515 Z3.000
;TYPE:WALL-INNER
G1 F2880 X114.485 Y92.515 E6.13071
G1 X114.485 Y95.485 E6.13117
G1 X111.067 Y95.485 E6.13169
G1 X111.067 Y107.477 E6.13352
G1 X111.066 Y112.485 E6.13428
G1 X105.931 Y112.485 E6.13506
G1 X105.930 Y109.073 E6.13558
G1 X105.931 Y95.485 E6.13765
G1 X98.724 Y95.485 E6.13875
G1 X98.725 Y110.463 E6.14104
G1 X98.724 Y112.485 E6.14134
G1 X94.276 Y112.485 E6.14202
G1 X94.275 Y97.537 E6.14430
G1 X94.276 Y95.485 E6.14461
G1 X90.515 Y95.485 E6.14519
G1 X90.515 Y92.515 E6.14564
G0 F9000 X90.505 Y92.505
;TYPE:WALL-OUTER
G1 F2880 X114.495 Y92.505 E6.14930
G1 X114.495 Y95.495 E6.14975
G1 X111.077 Y95.495 E6.15027
G1 X111.077 Y107.477 E6.15210
G1 X111.076 Y112.495 E6.15287
G1 X105.921 Y112.495 E6.15365
G1 X105.920 Y109.073 E6.15417
G1 X105.921 Y95.495 E6.15624
G1 X98.734 Y95.495 E6.15734
G1 X98.735 Y110.463 E6.15962
G1 X98.734 Y112.495 E6.15993
G1 X94.266 Y112.495 E6.16061
G1 X94.265 Y97.537 E6.16289
G1 X94.266 Y95.495 E6.16320
G1 X90.505 Y95.495 E6.16378
G1 X90.505 Y92.505 E6.16423
G0 F9000 X90.530 Y92.530
;LAYER:28
G0 X90.515 Y92.515 Z3.100
;TYPE:WALL-INNER
G1 F2880 X114.485 Y92.515 E6.16789
